X: 1
T:Annie's Excellent Sannies
M:C|
L:1/8
Q:80
C:P/M Michael J. Evans '95
S:Hornpipe
K:HP
|: {g}A/2a/2{g}a/2d/2a/2{g}a/2c/2a/2|
B/2{G}A/2{g}A/2{d}A/2{g}e/2A/2{g}c/2{d}A/2|
{g}G/2{d}B/2g/2B/2{gBeBG}B{g}d/2e/2|  !
g/2e/2{gde}d/2c/2d/2{e}G/2g/2B/2|
{g}A/2a/2{g}a/2d/2a/2{g}a/2c/2a/2|
B/2{G}A/2{g}A/2{d}A/2{g}e/2A/2{g}c/2{d}A/2|  !
{g}G/2{d}B/2g/2e/2{gdedc}d{g}B/2d/2|
{g}e/2A/2{gAGAG}A{g}A2:| |:
{g}A/2a/2{g}a/2d/2a/2e/2a/2d/2|  !
{g}c/2{d}A/2{g}A/2{d}A/2{g}e/2d/2{g}c/2{d}A/2|
{g}G/2{d}B/2g/2B/2{gBeBG}B{g}d/2e/2|
g/2e/2{gde}d/2c/2d/2{e}G/2g/2B/2|  !
{g}A/2a/2{g}a/2d/2a/2e/2a/2d/2|
{g}c/2{d}A/2{g}A/2{d}A/2{g}e/2d/2{g}c/2{d}A/2|
{g}G/2{d}B/2g/2e/2{gdedc}d{g}B/2d/2|  !
{g}e/2A/2{gAGAG}A{g}A2:|
